X: 11231
P: The Violet.
M: C
L: 1/16
K: G
|:\
d2dd B2B2 | (e2d2) "_>"d4 | c2cc A2A2 | (c2B2)"_>"B4 |\
d2dd B2B2 | g4 (fe).d.c | B2dd c2A2 | (A2G2)G2 H:|\
c2B2c2G2 | e2^d2e2c2 | A2(ed) (c2B2) | (d2c2)(c2"^D.C."^c2) |]\
(FG) |\
.A2.B2.^c2.d2 | (^c2B2).B2.G2 | (B2A2).A2.E2 | (G2F2).F2GA |\
.A2.B2.^c2.d2 | (^c2"_>"B2)g2e2 | (d=c).B.A B2^c2 | d2dd d2"^D.C."dd |]


